X:852
T:Reel 852
M:4/4
K:Amaj
L:1/8
CB,|A,2A,A, A,2CE|FGAF ECB,A,|F,A,A,C B,A,A,C|DCB,A, B,DCB,|A,A,A,C E2DE|FGAF ECB,A,|FAAG AFEC|A,E,F,G, A,2|FG|AGAF E2CE|FBBA B2AF|ECAG A,EEG|FBBA BdcB|AcBG AGFE|FEFG A2EC|DB,CA, B,A,A,C|FAGB A2|
